X: 19274
T: Ivy Leaf, The
R: reel
M: 4/4
K: Dmajor
A3A cdeA|AceA dBGB|A2ed cdec|AE~E2 GEDG|
A2ed cdec|(3.A.B.A ec dBGB|A2ed cdec|AE~E2 GEDG|
|:ea{b}ag eA (3.B.c.d|efge d3f|ea{b}ag edcd|
AE~E2 GED2|ea{b}ag eA (3.B.c.d|efge d3c|
[1 A3B +E3c3+d|(3.e.f.g fa gedB:|2 AEAc {d}cBcd|(3.e.f.g fa gedB||

